X: 29160
T: Never Was Piping So Gay
R: reel
M: 4/4
K: Gmajor
G2BD GBdB|cafd cAFA|G2BG DGBG|AF~F2 dFAF|
~G2GB DGBG|A2 fd ^cdef|gfgd BdBG|FGAF G3:|
f|gfgd BdBG|DGBd cAFA|GBBA ~B3d|cafd ^cdef|
gfgd BdBG|DGBd cAFA|BG~G2 AF~F2|BdcA ~G2G:|

